icons/1_Primary/GitLab.svg

<svg width="1024" height="1024" viewBox="0 0 1024 1024" fill="none" xmlns="http://www.w3.org/2000/svg">
<g clip-path="url(#clip0_2_2286)">
<path d="M512 1024C794.77 1024 1024 794.77 1024 512C1024 229.23 794.77 0 512 0C229.23 0 0 229.23 0 512C0 794.77 229.23 1024 512 1024Z" fill="#FF837D"/>
<path d="M759.49 470.65L758.77 468.81L689.08 286.94C687.663 283.375 685.152 280.35 681.91 278.3C679.496 276.758 676.754 275.804 673.904 275.514C671.054 275.224 668.176 275.606 665.501 276.63C662.825 277.654 660.428 279.292 658.5 281.41C656.572 283.529 655.168 286.07 654.4 288.83L607.35 432.83H416.81L369.76 288.83C368.74 285.121 366.578 281.829 363.58 279.42C360.57 277.068 356.91 275.696 353.096 275.491C349.281 275.285 345.495 276.255 342.25 278.27C339.014 280.328 336.506 283.35 335.08 286.91L265.25 468.71L264.56 470.55C254.527 496.761 253.288 525.524 261.03 552.501C268.771 579.479 285.074 603.207 307.48 620.11L307.72 620.3L308.36 620.75L414.52 700.25L467 740L499 764.15C502.74 766.987 507.305 768.523 512 768.523C516.694 768.523 521.26 766.987 525 764.15L557 740L609.52 700.25L716.32 620.25L716.59 620.04C738.948 603.139 755.217 579.438 762.953 552.499C770.689 525.56 769.474 496.839 759.49 470.65Z" fill="white"/>
</g>
<defs>
<clipPath id="clip0_2_2286">
<rect width="1024" height="1024" fill="white"/>
</clipPath>
</defs>
</svg>

<svg xmlns="http://www.w3.org/2000/svg" width="1024" height="1024" fill="none">
   <g clip-path="url(#a)">
      <path fill="#FF837D" d="M512 1024c282.77 0 512-229.23 512-512S794.77 0 512 0 0 229.23 0 512s229.23 512 512 512Z"/>
      <path fill="#fff" d="m759.49 470.65-.72-1.84-69.69-181.87a18.16 18.16 0 0 0-7.17-8.64 18.316 18.316 0 0 0-23.41 3.11 18.324 18.324 0 0 0-4.1 7.42l-47.05 144H416.81l-47.05-144a18.292 18.292 0 0 0-6.18-9.41 18.655 18.655 0 0 0-21.33-1.15 18.306 18.306 0 0 0-7.17 8.64l-69.83 181.8-.69 1.84a129.397 129.397 0 0 0 42.92 149.56l.24.19.64.45 106.16 79.5L467 740l32 24.15a21.51 21.51 0 0 0 26 0L557 740l52.52-39.75 106.8-80 .27-.21a129.46 129.46 0 0 0 42.9-149.39Z"/>
   </g>
   <defs>
      <clipPath id="a">
         <path fill="#fff" d="M0 0h1024v1024H0z"/>
      </clipPath>
   </defs>
</svg>
